X:1
T:"From Job Ch. 14, and from Dwight's Seasons, moralized"
T:A minor, C Major Oliver Holden, 1796
T:Man that is born of a woman Funeral Anthem No copyright. Transcribed from The Union Harmony, 1796.
%%score [ 1 2 3 4 ]
L:1/8
M:4/4
K:C
V:1 treble nm="Treble" snm="Tr."
V:2 treble nm="Counter" snm="C."
V:3 treble-8 nm="Tenor" snm="T."
V:4 bass nm="Bass" snm="B."
V:1
 A4 c2 d2 | e4 d2 e2 | e4 e4 | c3 B A4 | ^G4 A4 | (d2 c2) B4 | A4 A4 :| A4 c2 d2 | e4 d2 e2 | %9
w: |||||||He com- eth|forth like a|
 c4 B2 c2 | A4 (^G2 A2) | !fermata!E4 c4 | e2 e2 A2 B2 | c3 d e2 e2 | f2 e2 dc B2 | A8 |: z8 | z8 | %18
w: flow- er, and|is cut *|down; He|flee- th al- so|as a sha- dow,|and con- tin- u- eth|not.|||
 z8 | z8 | z8 | z8 | z8 | e8 | e4 d2 d2 | G2 c2 B2 B2 | B4 A3 ^G | (A2 B2) c2 c2 | e4 z4 | z8 | %30
w: ||||||||||||
 z4 c2 c2 | A2 A2 e4 | e3 d c2 B2 | c2 A2 ^G4 | A8 :|[M:2/4] z4 |: G3 G | G3 c | c2 c2 | c3 e | %40
w: ||||||||||
 e2 e2 | ec A^G | A3 B | ce dc | B3 e | de dc | d3 B | c2 G2 | E2 z B | c2 G2 | d3 e/d/ | c2 B2 | %52
w: ||||||||||||
 c4 :| %53
w: |
V:2
 E4 E2 E2 | E4 E2 E2 | E4 E4 | E3 E E4 | E4 C4 | F4 E4 | E4 E4 :| z8 | z8 | z8 | z8 | z8 | z8 | %13
w: Man that is|born of a|wo- man|is of few|days and|full of|trou- ble.|||||||
 z8 | z8 | z8 |: z8 | z8 | z8 | z8 | z8 | z8 | z8 | G8 | G4 G2 G2 | G2 G2 G2 G2 | G4 E3 D | %27
w: ||||||||||So|man li- eth|down and ri- seth|not: 'Till the|
 (E2 F2) E2 E2 | E4 E2 E2 | E2 E2 E4 | z4 E2 E2 | E2 E2 A4 | A3 G G2 G2 | E2 E2 E4 | E8 :| %35
w: heav'ns * be no|more, They shall|not a- wake,|They shall|not a- wake,|Nor be rai- sed|out of their|sleep.|
[M:2/4] z4 |: E3 E | E3 E | F2 F2 | E3 C | G2 G2 | GA EE | E3 D | E2 G2 | G3 G | G2 G2 | G3 G | %47
w: |But the|soul in|gay- est|bloom Dis-|dains the|bon- dage of the|tomb; A-|scends a-|bove the|clouds of|ev'n, And|
 G2 E2 | C2 z G | G2 G2 | G3 G | G2 F2 | E4 :| %53
w: rap- tured|hails, And|rap- tured|hails her|na- tive|heaven.|
V:3
 A4 A2 B2 | c4 B2 A2 | B4 B4 | A3 B c4 | B4 A4 | A4 ^G4 | A4 A4 :| z8 | z8 | z8 | z8 | z8 | z8 | %13
w: |||||||||||||
 z8 | z8 | z8 |: z8 | z8 | z8 | z8 | z8 | z8 | z8 | c8 | c4 B2 B2 | c2 e2 d2 d2 | d4 c3 d | %27
w: ||||||||||||||
 (e2 d2) c2 A2 | B4 z4 | z4 c2 c2 | A2 A2 e4- | e4 z4 | c3 d e2 d2 | e2 c2 B4 | A8 :|[M:2/4] z4 |: %36
w: ||They shall|not a- wake~|_|. * * *||||
 c3 e/d/ | c3 G | A2 cA | G3 G | c2 c2 | ce cB | A3 G | GA Bc | d3 c | dc de | f3 d | e2 c2 | %48
w: ||||||||||||
 G2 z d | e2 c2 | f3 g/f/ | e2 d2 | c4 :| %53
w: |||||
V:4
 A,4 A,2 ^G,2 | A,4 ^G,2 A,2 | E,4 E,4 | A,,3 E, A,4 | E,4 F,4 | D,4 E,4 | A,,4 A,,4 :| %7
w: |||||||
 A,,4 A,,2 B,,2 | C,4 B,,2 A,,2 | E,4 E,2 C,2 | D,4 E,4 | !fermata!E,4 A,4 | A,2 A,2 C2 B,2 | %13
w: He com- eth|forth like a|flow- er, and|is cut|down; He|flee- th al- so|
 A,3 ^G, A,2 E,2 | D,2 C,2 D,E, E,2 | A,,8 |: E,3 E, E,2 D,2 | C,4 E,2 E,2 | A,4 A,3 B, | %19
w: as a sha- dow,|and con- tin- u- eth|not.|As the wa- ters|fail from the|sea, And the|
 (C A,3) (G,2 F,2) | E,4 E,2 D,2 | C,4 B,,4 | A,,8 | C,8 | C,4 G,2 G,2 | E,2 C,2 G,2 G,2 | %26
w: flood * de- *|cay- eth and|dri- eth|up,||||
 G,4 A,3 B, | (C2 B,2) A,2 A,2 | E,4 E,2 E,2 | E,2 E,2 A,4- | A,8- | A,8 | A,3 B, C2 B,2 | %33
w: ||* They shall|not a- wake~|_|||
 A,2 A,2 E,4 | A,,8 :|[M:2/4] z4 |: C,3 C, | C,2 C,2 | F,2 F,2 | E,3 C, | C,2 C,2 | E,A, E,E, | %42
w: |||||||||
 A,,3 B,, | C,2 G,2 | G,3 C, | G,2 G,2 | G,3 G, | C2 C,2 | C,2 z G, | C2 C,2 | G,3 G, | G,2 G,2 | %52
w: ||||||||||
 C,4 :| %53
w: |

